app/dist/common/images/pangaea-logistics-solutions-ltd.svg

<svg height="18" viewBox="0 0 18 18" width="18" xmlns="http://www.w3.org/2000/svg"><path d="m0 0h18v18h-18z" fill="#f0f3fa"/><path d="m13.58 11h-4.08v-3h4.4a5.03 5.03 0 0 1 -.32 3zm-.58 1h-3.5v2a5.03 5.03 0 0 0 3.5-2zm-4.5 2v-7h-4.09a5.03 5.03 0 0 0 4.09 7zm-3.5-8h3.5v-2c-1.43.14-2.69.9-3.5 2zm4.5-2a5.02 5.02 0 0 1 4.09 3h-4.09z" fill="#092f56"/></svg>

<!-- by TradingView --><svg width="18" height="18" viewBox="0 0 18 18" xmlns="http://www.w3.org/2000/svg"><path fill="#F0F3FA" d="M0 0h18v18H0z"/><path d="M13.58 11H9.5V8h4.4a5.03 5.03 0 0 1-.32 3ZM13 12H9.5v2a5.03 5.03 0 0 0 3.5-2ZM8.5 14V7H4.41a5.03 5.03 0 0 0 4.09 7ZM5 6h3.5V4c-1.43.14-2.69.9-3.5 2ZM9.5 4a5.02 5.02 0 0 1 4.09 3H9.5V4Z" fill="#092F56"/></svg>
